assets/azurecostanalysis/original.svg

<svg height="18" viewBox="0 0 18 18" width="18" xmlns="http://www.w3.org/2000/svg" xmlns:xlink="http://www.w3.org/1999/xlink"><linearGradient id="a" gradientUnits="userSpaceOnUse" x1="5.839" x2="5.839" y1="17.068"><stop offset="0" stop-color="#5e9624"/><stop offset=".037" stop-color="#609925"/><stop offset=".439" stop-color="#75ba2d"/><stop offset=".775" stop-color="#81cf31"/><stop offset="1" stop-color="#86d633"/></linearGradient><path d="m9.477 8.936a7.4 7.4 0 0 0 -2.777-1.636v-3.056a6.7 6.7 0 0 1 2.511.887.215.215 0 0 0 .327-.185v-2.456a.22.22 0 0 0 -.11-.189 6.6 6.6 0 0 0 -2.728-.634v-1.451a.216.216 0 0 0 -.219-.216h-1.318a.216.216 0 0 0 -.216.216v1.5a4.5 4.5 0 0 0 -2.565 1.2 3.51 3.51 0 0 0 -1.082 2.594 3.5 3.5 0 0 0 .887 2.481 7.5 7.5 0 0 0 2.76 1.633v2.92a7 7 0 0 1 -1.571-.4 5.1 5.1 0 0 1 -1.492-.744.216.216 0 0 0 -.343.174v2.526a.22.22 0 0 0 .116.191 7.6 7.6 0 0 0 3.29.859v1.707a.216.216 0 0 0 .216.216h1.318a.216.216 0 0 0 .215-.216v-1.79a4.68 4.68 0 0 0 2.679-1.167 3.46 3.46 0 0 0 1.005-2.577 3.36 3.36 0 0 0 -.903-2.387m-1.925 2.5v.015a.984.984 0 0 1 -.852 1.032v-2.143c.558.31.845.677.852 1.093zm-3.425-6.081a1 1 0 0 1 .821-1.048v2.25a1.41 1.41 0 0 1 -.821-1.202" fill="url(#a)"/><rect fill="#198ab3" height="1.359" rx=".635" transform="matrix(-.70710678 -.70710678 .70710678 -.70710678 13.46159 36.923973)" width="5.966" x="11.394" y="14.994"/><circle cx="10.45" cy="11.677" fill="#32bedd" r="4.093"/><circle cx="10.458" cy="11.604" fill="#fff" r="3.215"/></svg>

<svg xmlns="http://www.w3.org/2000/svg" width="18" height="18" viewBox="0 0 18 18"><linearGradient id="a" x1="5.839" x2="5.839" y1="17.068" gradientUnits="userSpaceOnUse"><stop offset="0" stop-color="#5e9624"/><stop offset=".037" stop-color="#609925"/><stop offset=".439" stop-color="#75ba2d"/><stop offset=".775" stop-color="#81cf31"/><stop offset="1" stop-color="#86d633"/></linearGradient><path fill="url(#a)" d="M9.477 8.936A7.4 7.4 0 0 0 6.7 7.3V4.244a6.7 6.7 0 0 1 2.511.887.215.215 0 0 0 .327-.185V2.49a.22.22 0 0 0-.11-.189A6.6 6.6 0 0 0 6.7 1.667V.216A.216.216 0 0 0 6.481 0H5.163a.216.216 0 0 0-.216.216v1.5a4.5 4.5 0 0 0-2.565 1.2A3.5 3.5 0 0 0 1.3 5.51a3.5 3.5 0 0 0 .887 2.481 7.5 7.5 0 0 0 2.76 1.633v2.92a7 7 0 0 1-1.571-.4 5.1 5.1 0 0 1-1.492-.744.216.216 0 0 0-.343.174V14.1a.22.22 0 0 0 .116.191 7.6 7.6 0 0 0 3.29.859v1.707a.216.216 0 0 0 .216.216h1.318a.216.216 0 0 0 .215-.216v-1.79A4.68 4.68 0 0 0 9.375 13.9a3.46 3.46 0 0 0 1.005-2.577 3.36 3.36 0 0 0-.903-2.387m-1.925 2.5v.015a.984.984 0 0 1-.852 1.032V10.34c.558.31.845.677.852 1.093zM4.127 5.355a1 1 0 0 1 .821-1.048v2.25a1.41 1.41 0 0 1-.821-1.202"/><rect width="5.966" height="1.359" x="11.394" y="14.994" fill="#198ab3" rx=".635" transform="rotate(225 14.378 15.674)"/><circle cx="10.45" cy="11.677" r="4.093" fill="#32bedd"/><circle cx="10.458" cy="11.604" r="3.215" fill="#fff"/></svg>
